X:1
T:[ID 1-109a]
T:[ID 1-109a]
T:Bezeichnung standardisiert: Tantz Tantz 5.
T:Urheber unbekannt Datum in der hier transkribierten schriftlichen Quelle: 1775
C:Urheber unbekannt
C:Datum in der hier transkribierten schriftlichen Quelle: 1775
L:1/8
M:2/4
K:D
V:1 treble 
V:1
 Fd AF | AedA | dfed | A2 A/B/A/G/ | Fd AF | AedA | G/F/G/E/ AG | G4 :: dfed | Te4 | AedA | Td4 | %12
 Fd AF | AedA | G/F/G/E/ AG | F4 :| %16

